resources/icons/16px/nest.svg

<svg xmlns="http://www.w3.org/2000/svg" viewBox="0 0 16 16">
  <path d="M2 2c.55 0 1 .45 1 1v3c0 1.66 1.34 3 3 3h5.59L10.3 7.71A.97.97 0 0 1 10 7a1.003 1.003 0 0 1 1.71-.71l3 3c.18.18.29.43.29.71s-.11.53-.29.71l-3 3a1.003 1.003 0 0 1-1.42-1.42l1.3-1.29H6c-2.76 0-5-2.24-5-5V3c0-.55.45-1 1-1"/>
</svg>

<svg width="16" height="16" viewBox="0 0 16 16" xmlns="http://www.w3.org/2000/svg">
<path fill-rule="evenodd" clip-rule="evenodd" d="M2 2C2.55 2 3 2.45 3 3V6C3 7.66 4.34 9 6 9H11.59L10.3 7.71C10.11 7.53 10 7.28 10 7C10 6.45 10.45 6 11 6C11.28 6 11.53 6.11 11.71 6.29L14.71 9.29C14.89 9.47 15 9.72 15 10C15 10.28 14.89 10.53 14.71 10.71L11.71 13.71C11.53 13.89 11.28 14 11 14C10.45 14 10 13.55 10 13C10 12.72 10.11 12.47 10.29 12.29L11.59 11H6C3.24 11 1 8.76 1 6V3C1 2.45 1.45 2 2 2Z"/>
</svg>
